!!!OTL: Jetzt gang i ans Br&uuml;nnele (2-53), S. 142f
!!!id: K1135
**kern
*clefG2
*k[f#]
*G:
{4d
=1
4.g
8f#
8g
8a
=2
4.b
8cc
4b
=3
4a
4g
4a
=4
2g}
=5
{8g
8a
=6
4.b
8a
8b
8cc
=7
4.dd
8ee
4dd
=8
4cc
4b
4cc
=9
2b}
4r
=10
{2.dd
=11
8dd
8cc
4cc
4cc
=12
4b
8dd
8b
4b}
=13
{8b
8a
4a
4a
=14
4b
4dd
4r
=15
2.dd}
=16
{8dd
8cc
4cc
4cc
=17
4b
8dd
8b
4b}
=18
{8b
8a
4a
4a
=19
2g}
==
*-
!!!minrhy: 8
!!!meters: 3/4 ]  ZZ[6
!!!cut: Jetzt gang i ans Br&uuml;nnele (2-53), S. 142f
!!!reg: Luxemburg
!!!trd: KINTZELE, Guillaume: An der Ucht, Bd. 2, Luxemburg 1927
!!!rhy1: X_  X_.XXX  X_.XX_  X_X_X_  X__
!!!rhy2: XX  X_.XXX  X_.XX_  X_X_X_  X__0_
!!!key: K1135  08  G 3/4 ]  ZZ[6
!!!mod: HEPTATONIK IONISCH]  AMBITUS[9
!!!kad: 133531
!!!akz: 1321_3543_553_335_53_31_
!!!fot: 'a__as"b__c__d__cw_
!!!for: 'a__av_b__c__d__cw_
!!!fok: '^a_^a_\__/__\__\__
!! PHRAS[VORWIEGEND VOLLTAKTIG]
!!!fkt: Scherzlied &uuml;ber Treue und Untreue
!!!bem: in der Quelle mit einer 2. Stimme versehen
!! KINTZELE
!! PR[16] 2K[8] 2G[18] 3K[8] 3G[6] 4A[2] 4Ü[0] 5A[0] 6K[0] 6G[0]
!! 7K[0] 7G[0] 8A[0] MEHR[0] SI[41] ABS[51] SR[25] SP[16]
!! ST[12] 2k[12] 2g[25] 3k[4] 3g[2] 4d[0] 4ü[0] 5d[0] 6k[0] 6g[0]
!! 7k[0] 7g[0] 8d[0] mehr[0] si[43] dm[-2] sr[37] sp[6]
!! 1F[51] 2F[39] 3F[9] 4F[0] LF[0] 2P[2] 3P[0] 4P[0] TRI[0] DF[4] AB[57]
!! TF[0] U3K[0] U3[0] U4[0] U4Ü[0] U5[2] U6K[0] U6[0] U7K[0] U7[2]
!! N1[10] N2K[0] N2[8] N3K[0] N3[23] N4[21] N4Ü[0] N5[29] N6K[0] N6[6]
!!!n7k: 0] N7[0] O1[0] O2K[0] O2[0] O3K[0] O3[0] HÖ[0
!!!RNB: symbol: &uuml;  = u umlaut (UTF-8: Ã¼)
